curriculum/images/exercise-icons/scroll-and-shoot.svg

<svg width="80" height="80" viewBox="0 0 80 80" fill="none" xmlns="http://www.w3.org/2000/svg">
<path d="M0 40C0 50.6087 4.21427 60.7828 11.7157 68.2843C19.2172 75.7857 29.3913 80 40 80C50.6087 80 60.7828 75.7857 68.2843 68.2843C75.7857 60.7828 80 50.6087 80 40C80 29.3913 75.7857 19.2172 68.2843 11.7157C60.7828 4.21427 50.6087 0 40 0C29.3913 0 19.2172 4.21427 11.7157 11.7157C4.21427 19.2172 0 29.3913 0 40Z" fill="#202921"/>
<path d="M40.065 45.017C30.277 45.017 22.342 42.947 22.342 40.394V58.887C22.342 61.44 30.277 63.511 40.065 63.511C49.853 63.511 57.788 61.44 57.788 58.887V40.394C57.788 42.947 49.853 45.017 40.065 45.017Z" fill="#08EB66"/>
<path d="M32.359 53.493V63.048C33.104 63.142 33.873 63.224 34.671 63.291V51.182C34.058 51.182 33.4701 51.4255 33.0365 51.8588C32.603 52.2922 32.3593 52.88 32.359 53.493Z" fill="#00C551"/>
<path d="M47.77 53.493V63.048C47.026 63.142 46.2557 63.223 45.459 63.291V51.182C46.0719 51.182 46.6597 51.4255 47.0931 51.8589C47.5265 52.2923 47.77 52.8801 47.77 53.493Z" fill="#00C551"/>
<path d="M40.065 45.017C30.277 45.017 22.342 42.947 22.342 40.394V42.706C22.342 45.259 30.277 47.329 40.065 47.329C40.588 47.329 41.102 47.32 41.614 47.309C41.6317 47.9337 41.8924 48.5268 42.3406 48.9623C42.7888 49.3978 43.3891 49.6413 44.014 49.641H46.908C47.5461 49.6407 48.1579 49.3872 48.609 48.936C49.0602 48.4849 49.3138 47.873 49.314 47.235V46.644C54.391 45.831 57.79 44.374 57.79 42.706V40.394C57.788 42.947 49.853 45.017 40.065 45.017Z" fill="#00C551"/>
<path d="M16.178 52.723C16.1778 51.2337 16.7244 49.796 17.714 48.683L22.342 43.476V58.887H18.487C17.8746 58.887 17.2873 58.6437 16.8543 58.2107C16.4212 57.7777 16.178 57.1904 16.178 56.578V52.723Z" fill="#00B149" stroke="#574D41" stroke-linecap="round" stroke-linejoin="round"/>
<path d="M63.9479 52.723C63.9481 51.2337 63.4016 49.796 62.4119 48.683L57.7839 43.476V58.887H61.6389C62.2513 58.887 62.8386 58.6437 63.2717 58.2107C63.7047 57.7777 63.9479 57.1904 63.9479 56.578V52.723Z" fill="#00B149" stroke="#574D41" stroke-linecap="round" stroke-linejoin="round"/>
<path d="M40.065 45.017C30.277 45.017 22.342 42.947 22.342 40.394V58.887C22.342 61.44 30.277 63.511 40.065 63.511C49.853 63.511 57.788 61.44 57.788 58.887V40.394C57.788 42.947 49.853 45.017 40.065 45.017Z" stroke="#574D41"/>
<path d="M40.065 10.342C29.277 10.342 22.342 25.753 22.342 30.377V35.771C22.342 38.324 30.277 40.394 40.065 40.394C49.853 40.394 57.788 38.324 57.788 35.771V30.377C57.788 25.753 50.853 10.342 40.065 10.342Z" fill="#08EB66"/>
<path d="M40.065 10.342C29.277 10.342 22.342 25.753 22.342 30.377V33.459C22.342 28.836 29.277 13.425 40.065 13.425C50.853 13.425 57.788 28.836 57.788 33.459V30.377C57.788 25.753 50.853 10.342 40.065 10.342Z" fill="#00C551"/>
<path d="M40.065 10.342C29.277 10.342 22.342 25.753 22.342 30.377V35.771C22.342 38.324 30.277 40.394 40.065 40.394C49.853 40.394 57.788 38.324 57.788 35.771V30.377C57.788 25.753 50.853 10.342 40.065 10.342Z" stroke="#574D41" stroke-linecap="round" stroke-linejoin="round"/>
<path d="M38.524 23.827C38.524 24.5423 38.6864 25.2283 38.9754 25.7341C39.2644 26.2399 39.6563 26.524 40.065 26.524C40.4737 26.524 40.8657 26.2399 41.1547 25.7341C41.4437 25.2283 41.606 24.5423 41.606 23.827C41.606 23.1117 41.4437 22.4257 41.1547 21.9199C40.8657 21.4142 40.4737 21.13 40.065 21.13C39.6563 21.13 39.2644 21.4142 38.9754 21.9199C38.6864 22.4257 38.524 23.1117 38.524 23.827Z" fill="#87898C"/>
<path d="M38.524 23.827C38.524 24.5423 38.6864 25.2283 38.9754 25.7341C39.2644 26.2399 39.6563 26.524 40.065 26.524C40.4737 26.524 40.8657 26.2399 41.1547 25.7341C41.4437 25.2283 41.606 24.5423 41.606 23.827C41.606 23.1117 41.4437 22.4257 41.1547 21.9199C40.8657 21.4142 40.4737 21.13 40.065 21.13C39.6563 21.13 39.2644 21.4142 38.9754 21.9199C38.6864 22.4257 38.524 23.1117 38.524 23.827Z" stroke="#574D41" stroke-linecap="round" stroke-linejoin="round"/>
<path d="M33.163 24.2C32.863 25.658 31.938 26.7 31.104 26.526C30.27 26.352 29.842 25.026 30.145 23.572C30.448 22.118 31.37 21.072 32.203 21.245C33.036 21.418 33.466 22.739 33.163 24.2Z" fill="#87898C"/>
<path d="M33.163 24.2C32.863 25.658 31.938 26.7 31.104 26.526C30.27 26.352 29.842 25.026 30.145 23.572C30.448 22.118 31.37 21.072 32.203 21.245C33.036 21.418 33.466 22.739 33.163 24.2Z" stroke="#574D41" stroke-linecap="round" stroke-linejoin="round"/>
<path d="M46.9669 24.2C47.2669 25.658 48.1919 26.7 49.0259 26.526C49.8599 26.352 50.2879 25.026 49.9849 23.572C49.6819 22.118 48.7599 21.072 47.9259 21.245C47.0919 21.418 46.6639 22.739 46.9669 24.2Z" fill="#87898C" stroke="#574D41" stroke-linecap="round" stroke-linejoin="round"/>
<path d="M22.342 35.771C22.342 38.324 30.277 40.394 40.065 40.394C49.853 40.394 57.788 38.324 57.788 35.771V40.394C57.788 42.947 49.853 45.017 40.065 45.017C30.277 45.017 22.342 42.947 22.342 40.394V35.771Z" fill="#87898C"/>
<path d="M40.065 40.394C30.277 40.394 22.342 38.324 22.342 35.771V37.312C22.342 39.865 30.277 41.935 40.065 41.935C49.853 41.935 57.788 39.865 57.788 37.312V35.771C57.788 38.324 49.853 40.394 40.065 40.394Z" fill="#87898C"/>
<path d="M22.342 35.771C22.342 38.324 30.277 40.394 40.065 40.394C49.853 40.394 57.788 38.324 57.788 35.771V40.394C57.788 42.947 49.853 45.017 40.065 45.017C30.277 45.017 22.342 42.947 22.342 40.394V35.771Z" stroke="#574D41" stroke-linecap="round" stroke-linejoin="round"/>
<path d="M47.77 45.786C47.7764 46.0936 47.7213 46.3994 47.608 46.6854C47.4947 46.9715 47.3255 47.232 47.1102 47.4518C46.8949 47.6716 46.638 47.8462 46.3543 47.9654C46.0707 48.0847 45.7661 48.1461 45.4585 48.1461C45.1508 48.1461 44.8463 48.0847 44.5626 47.9654C44.279 47.8462 44.022 47.6716 43.8067 47.4518C43.5915 47.232 43.4222 46.9715 43.3089 46.6854C43.1956 46.3994 43.1406 46.0936 43.147 45.786V38.851C43.1406 38.5434 43.1956 38.2376 43.3089 37.9516C43.4222 37.6655 43.5915 37.405 43.8067 37.1852C44.022 36.9654 44.279 36.7907 44.5626 36.6715C44.8463 36.5523 45.1508 36.4909 45.4585 36.4909C45.7661 36.4909 46.0707 36.5523 46.3543 36.6715C46.638 36.7907 46.8949 36.9654 47.1102 37.1852C47.3255 37.405 47.4947 37.6655 47.608 37.9516C47.7213 38.2376 47.7764 38.5434 47.77 38.851V45.786Z" fill="#C9FFDE" stroke="#574D41"/>
<path d="M45.459 51.952V61.2C45.459 62.6306 44.8907 64.0026 43.8792 65.0141C42.8676 66.0257 41.4956 66.594 40.065 66.594C38.6344 66.594 37.2625 66.0257 36.2509 65.0141C35.2393 64.0026 34.671 62.6306 34.671 61.2V51.952" fill="#C9FFDE"/>
<path d="M45.459 51.952V61.2C45.459 62.6306 44.8907 64.0026 43.8792 65.0141C42.8676 66.0257 41.4956 66.594 40.065 66.594C38.6344 66.594 37.2625 66.0257 36.2509 65.0141C35.2393 64.0026 34.671 62.6306 34.671 61.2V51.952" stroke="#574D41" stroke-linecap="round" stroke-linejoin="round"/>
<path d="M26.963 38.876C25.278 29.584 25.563 28.854 23.883 28.854C23.679 28.8497 23.4763 28.8869 23.2871 28.9631C23.0979 29.0394 22.9261 29.1532 22.7821 29.2977C22.6381 29.4422 22.5248 29.6143 22.4492 29.8038C22.3735 29.9932 22.3371 30.1961 22.342 30.4V35.775C22.342 36.968 24.1 38.055 26.963 38.876Z" fill="#87898C"/>
<path d="M23.883 31.147C24.5425 31.1211 25.1899 31.329 25.711 31.734C25.223 29.155 24.947 28.854 23.883 28.854C23.679 28.8497 23.4763 28.8869 23.2871 28.9631C23.0979 29.0394 22.9261 29.1532 22.7821 29.2977C22.6381 29.4422 22.5248 29.6143 22.4492 29.8038C22.3736 29.9932 22.3371 30.1961 22.342 30.4V32.692C22.3371 32.4881 22.3736 32.2853 22.4492 32.0959C22.5249 31.9065 22.6381 31.7344 22.7821 31.59C22.9262 31.4456 23.098 31.3319 23.2872 31.2558C23.4764 31.1796 23.6791 31.1426 23.883 31.147Z" fill="#87898C"/>
<path d="M26.963 38.876C25.278 29.584 25.563 28.854 23.883 28.854C23.679 28.8497 23.4763 28.8869 23.2871 28.9631C23.0979 29.0394 22.9261 29.1532 22.7821 29.2977C22.6381 29.4422 22.5248 29.6143 22.4492 29.8038C22.3735 29.9932 22.3371 30.1961 22.342 30.4V35.775C22.342 36.968 24.1 38.055 26.963 38.876Z" stroke="#574D41" stroke-linecap="round" stroke-linejoin="round"/>
<path d="M53.167 38.876C54.852 29.584 54.567 28.854 56.247 28.854C56.4509 28.8497 56.6537 28.8869 56.8429 28.9631C57.0321 29.0394 57.2039 29.1532 57.3479 29.2977C57.4919 29.4422 57.6052 29.6143 57.6808 29.8038C57.7564 29.9932 57.7929 30.1961 57.788 30.4V35.775C57.788 36.968 56.029 38.055 53.167 38.876Z" fill="#87898C"/>
<path d="M56.2469 31.147C55.5875 31.1211 54.9401 31.329 54.4189 31.734C54.9069 29.155 55.1829 28.854 56.2469 28.854C56.4509 28.8497 56.6536 28.8869 56.8428 28.9631C57.032 29.0394 57.2038 29.1532 57.3478 29.2977C57.4919 29.4422 57.6051 29.6143 57.6807 29.8038C57.7564 29.9932 57.7929 30.1961 57.7879 30.4V32.692C57.7929 32.4881 57.7564 32.2853 57.6807 32.0959C57.6051 31.9065 57.4918 31.7344 57.3478 31.59C57.2038 31.4456 57.032 31.3319 56.8427 31.2558C56.6535 31.1796 56.4509 31.1426 56.2469 31.147Z" fill="#87898C"/>
<path d="M53.167 38.876C54.852 29.584 54.567 28.854 56.247 28.854C56.4509 28.8497 56.6537 28.8869 56.8429 28.9631C57.0321 29.0394 57.2039 29.1532 57.3479 29.2977C57.4919 29.4422 57.6052 29.6143 57.6808 29.8038C57.7564 29.9932 57.7929 30.1961 57.788 30.4V35.775C57.788 36.968 56.029 38.055 53.167 38.876Z" stroke="#574D41" stroke-linecap="round" stroke-linejoin="round"/>
</svg>

<svg xmlns="http://www.w3.org/2000/svg" width="80" height="80" fill="none" viewBox="0 0 80 80"><path fill="#202921" d="M0 40a40 40 0 1 0 80 0 40 40 0 0 0-80 0"/><path fill="#08eb66" d="M40.065 45.017c-9.788 0-17.723-2.07-17.723-4.623v18.493c0 2.553 7.935 4.624 17.723 4.624s17.723-2.071 17.723-4.624V40.394c0 2.553-7.935 4.623-17.723 4.623"/><path fill="#00c551" d="M32.359 53.493v9.555q1.116.142 2.312.243V51.182a2.31 2.31 0 0 0-2.312 2.311M47.77 53.493v9.555q-1.116.141-2.311.243V51.182a2.31 2.31 0 0 1 2.311 2.311M40.065 45.017c-9.788 0-17.723-2.07-17.723-4.623v2.312c0 2.553 7.935 4.623 17.723 4.623a72 72 0 0 0 1.549-.02 2.4 2.4 0 0 0 2.4 2.332h2.894a2.407 2.407 0 0 0 2.406-2.406v-.591c5.077-.813 8.476-2.27 8.476-3.938v-2.312c-.002 2.553-7.937 4.623-17.725 4.623"/><path fill="#00b149" stroke="#574d41" stroke-linecap="round" stroke-linejoin="round" d="M16.178 52.723c0-1.49.546-2.927 1.536-4.04l4.628-5.207v15.411h-3.855a2.31 2.31 0 0 1-2.309-2.309zM63.948 52.723c0-1.49-.546-2.927-1.536-4.04l-4.628-5.207v15.411h3.855a2.31 2.31 0 0 0 2.309-2.309z"/><path stroke="#574d41" d="M40.065 45.017c-9.788 0-17.723-2.07-17.723-4.623v18.493c0 2.553 7.935 4.624 17.723 4.624s17.723-2.071 17.723-4.624V40.394c0 2.553-7.935 4.623-17.723 4.623Z"/><path fill="#08eb66" d="M40.065 10.342c-10.788 0-17.723 15.411-17.723 20.035v5.394c0 2.553 7.935 4.623 17.723 4.623s17.723-2.07 17.723-4.623v-5.394c0-4.624-6.935-20.035-17.723-20.035"/><path fill="#00c551" d="M40.065 10.342c-10.788 0-17.723 15.411-17.723 20.035v3.082c0-4.623 6.935-20.034 17.723-20.034s17.723 15.411 17.723 20.034v-3.082c0-4.624-6.935-20.035-17.723-20.035"/><path stroke="#574d41" stroke-linecap="round" stroke-linejoin="round" d="M40.065 10.342c-10.788 0-17.723 15.411-17.723 20.035v5.394c0 2.553 7.935 4.623 17.723 4.623s17.723-2.07 17.723-4.623v-5.394c0-4.624-6.935-20.035-17.723-20.035"/><path fill="#87898c" d="M38.524 23.827c0 .715.162 1.401.451 1.907s.681.79 1.09.79.8-.284 1.09-.79c.289-.506.451-1.192.451-1.907s-.162-1.401-.451-1.907-.681-.79-1.09-.79-.8.284-1.09.79c-.289.506-.451 1.192-.451 1.907"/><path stroke="#574d41" stroke-linecap="round" stroke-linejoin="round" d="M38.524 23.827c0 .715.162 1.401.451 1.907s.681.79 1.09.79.8-.284 1.09-.79c.289-.506.451-1.192.451-1.907s-.162-1.401-.451-1.907-.681-.79-1.09-.79-.8.284-1.09.79c-.289.506-.451 1.192-.451 1.907"/><path fill="#87898c" d="M33.163 24.2c-.3 1.458-1.225 2.5-2.059 2.326s-1.262-1.5-.959-2.954 1.225-2.5 2.058-2.327 1.263 1.494.96 2.955"/><path stroke="#574d41" stroke-linecap="round" stroke-linejoin="round" d="M33.163 24.2c-.3 1.458-1.225 2.5-2.059 2.326s-1.262-1.5-.959-2.954 1.225-2.5 2.058-2.327 1.263 1.494.96 2.955"/><path fill="#87898c" stroke="#574d41" stroke-linecap="round" stroke-linejoin="round" d="M46.967 24.2c.3 1.458 1.225 2.5 2.059 2.326s1.262-1.5.959-2.954-1.225-2.5-2.06-2.327c-.833.173-1.261 1.494-.958 2.955"/><path fill="#87898c" d="M22.342 35.771c0 2.553 7.935 4.623 17.723 4.623s17.723-2.07 17.723-4.623v4.623c0 2.553-7.935 4.623-17.723 4.623s-17.723-2.07-17.723-4.623z"/><path fill="#87898c" d="M40.065 40.394c-9.788 0-17.723-2.07-17.723-4.623v1.541c0 2.553 7.935 4.623 17.723 4.623s17.723-2.07 17.723-4.623v-1.541c0 2.553-7.935 4.623-17.723 4.623"/><path stroke="#574d41" stroke-linecap="round" stroke-linejoin="round" d="M22.342 35.771c0 2.553 7.935 4.623 17.723 4.623s17.723-2.07 17.723-4.623v4.623c0 2.553-7.935 4.623-17.723 4.623s-17.723-2.07-17.723-4.623z"/><path fill="#c9ffde" stroke="#574d41" d="M47.77 45.786a2.312 2.312 0 1 1-4.623 0v-6.935a2.311 2.311 0 1 1 4.623 0z"/><path fill="#c9ffde" d="M45.459 51.952V61.2a5.394 5.394 0 1 1-10.788 0v-9.248"/><path stroke="#574d41" stroke-linecap="round" stroke-linejoin="round" d="M45.459 51.952V61.2a5.394 5.394 0 1 1-10.788 0v-9.248"/><path fill="#87898c" d="M26.963 38.876c-1.685-9.292-1.4-10.022-3.08-10.022a1.51 1.51 0 0 0-1.541 1.546v5.375c0 1.193 1.758 2.28 4.621 3.101"/><path fill="#87898c" d="M23.883 31.147a2.8 2.8 0 0 1 1.828.587c-.488-2.579-.764-2.88-1.828-2.88a1.51 1.51 0 0 0-1.541 1.546v2.292a1.51 1.51 0 0 1 1.541-1.545"/><path stroke="#574d41" stroke-linecap="round" stroke-linejoin="round" d="M26.963 38.876c-1.685-9.292-1.4-10.022-3.08-10.022a1.51 1.51 0 0 0-1.541 1.546v5.375c0 1.193 1.758 2.28 4.621 3.101"/><path fill="#87898c" d="M53.167 38.876c1.685-9.292 1.4-10.022 3.08-10.022a1.51 1.51 0 0 1 1.541 1.546v5.375c0 1.193-1.759 2.28-4.621 3.101"/><path fill="#87898c" d="M56.247 31.147a2.8 2.8 0 0 0-1.828.587c.488-2.579.764-2.88 1.828-2.88a1.51 1.51 0 0 1 1.54 1.546v2.292a1.507 1.507 0 0 0-1.54-1.545"/><path stroke="#574d41" stroke-linecap="round" stroke-linejoin="round" d="M53.167 38.876c1.685-9.292 1.4-10.022 3.08-10.022a1.51 1.51 0 0 1 1.541 1.546v5.375c0 1.193-1.759 2.28-4.621 3.101"/></svg>
